static/img/device/component-wall-bracket-bep2.svg

<svg xmlns="http://www.w3.org/2000/svg" width="144" height="454" fill="none" viewBox="0 0 144 454"><path fill="#fff" d="M143.3 0H0v453.98h143.3z"/><path stroke="gray" stroke-linecap="round" stroke-linejoin="round" stroke-width=".5" d="M60.31 435.99h22.68"/><path stroke="#000" stroke-linecap="round" stroke-linejoin="round" d="M60.31 439.31h22.68M120.13 414.36h-34.3M57.48 414.36h-34.3M14.68 371.84h2.83M125.8 371.84h2.83"/><path stroke="#000" stroke-linecap="round" stroke-linejoin="round" stroke-width=".5" d="M14.68 298.99h2.83M125.8 298.99h2.83"/><path stroke="#000" stroke-linecap="round" stroke-linejoin="round" d="M14.68 371.84V67.12"/><path stroke="#000" stroke-linecap="round" stroke-linejoin="round" stroke-width=".5" d="M17.51 371.84V67.12"/><path stroke="#000" stroke-linecap="round" stroke-linejoin="round" d="M18.93 37.35V65.7M18.93 410.11v-36.85"/><path stroke="#000" stroke-linecap="round" stroke-linejoin="round" stroke-width=".5" d="M14.68 277.73h2.83M125.8 277.73h2.83"/><path stroke="#000" stroke-linecap="round" stroke-linejoin="round" d="M36.22 32.53v-13.6M50.39 18.93v13.6M60.31 439.31V417.2M65.28 334.99v-28.34M78.03 306.65v28.34M82.99 439.31V417.2M92.91 32.53v-13.6M107.09 32.53v-13.6M124.38 37.35V65.7M124.38 373.26v36.85"/><path stroke="#000" stroke-linecap="round" stroke-linejoin="round" stroke-width=".5" d="M125.8 371.84V67.12"/><path stroke="#000" stroke-linecap="round" stroke-linejoin="round" d="M128.63 371.84V67.12"/><path stroke="#000" stroke-linecap="round" stroke-linejoin="round" stroke-width=".5" d="M14.68 96.88h2.83M125.8 96.88h2.83M14.68 75.62h2.83M125.8 75.62h2.83"/><path stroke="#000" stroke-linecap="round" stroke-linejoin="round" d="M128.63 67.12h-2.83M17.51 67.12h-2.83M92.35 33.1H50.96M23.18 33.1h12.47M107.65 33.1h12.48"/><path stroke="#000" stroke-linecap="round" stroke-linejoin="round" stroke-width=".5" d="M36.22 31.68h14.17M92.91 31.68h14.18"/><path stroke="#000" stroke-linecap="round" stroke-linejoin="round" d="M40.47 14.68h5.67M97.17 14.68h5.66M65.28 334.99c0 3.52 2.86 6.38 6.38 6.38s6.38-2.86 6.38-6.38M78.03 306.65c0-3.52-2.86-6.38-6.38-6.38s-6.38 2.86-6.38 6.38M124.38 37.35c0-2.35-1.9-4.25-4.25-4.25M120.13 414.36c2.35 0 4.25-1.9 4.25-4.25M18.93 410.11c0 2.35 1.9 4.25 4.25 4.25M23.18 33.1c-2.35 0-4.25 1.9-4.25 4.25M50.39 18.93c0-2.35-1.9-4.25-4.25-4.25M40.47 14.68c-2.35 0-4.25 1.9-4.25 4.25M107.09 18.93c0-2.35-1.9-4.25-4.25-4.25M97.17 14.68c-2.35 0-4.25 1.9-4.25 4.25M60.31 417.2c0-1.57-1.27-2.83-2.83-2.83M85.83 414.36c-1.57 0-2.83 1.27-2.83 2.83M18.93 373.26c0-.78-.63-1.42-1.42-1.42M17.51 67.12c.78 0 1.42-.63 1.42-1.42M124.38 65.7c0 .78.63 1.42 1.42 1.42M125.8 371.84c-.78 0-1.42.63-1.42 1.42M50.39 32.53c0 .31.25.57.57.57M35.65 33.1c.31 0 .57-.25.57-.57M92.35 33.1c.31 0 .57-.25.57-.57M107.09 32.53c0 .31.25.57.57.57M30.55 207.43v-87.87M107.09 213.1H36.22M112.76 119.56v87.87M36.22 113.89h70.87M107.09 213.1c3.13 0 5.67-2.54 5.67-5.67M30.55 207.43c0 3.13 2.54 5.67 5.67 5.67M36.22 113.89c-3.13 0-5.67 2.54-5.67 5.67M112.76 119.56c0-3.13-2.54-5.67-5.67-5.67M65.98 79.87c0-3.13 2.54-5.67 5.67-5.67s5.67 2.54 5.67 5.67-2.54 5.67-5.67 5.67-5.67-2.54-5.67-5.67"/></svg>

<svg width="144" height="454" viewBox="0 0 144 454" fill="none" xmlns="http://www.w3.org/2000/svg">
<path d="M143.3 0H0V453.98H143.3V0Z" fill="white"/>
<path d="M60.31 435.99H82.99" stroke="#808080" stroke-width="0.5" stroke-linecap="round" stroke-linejoin="round"/>
<path d="M60.31 439.31H82.99" stroke="black" stroke-linecap="round" stroke-linejoin="round"/>
<path d="M120.13 414.36H85.83" stroke="black" stroke-linecap="round" stroke-linejoin="round"/>
<path d="M57.48 414.36H23.18" stroke="black" stroke-linecap="round" stroke-linejoin="round"/>
<path d="M14.68 371.84H17.51" stroke="black" stroke-linecap="round" stroke-linejoin="round"/>
<path d="M125.8 371.84H128.63" stroke="black" stroke-linecap="round" stroke-linejoin="round"/>
<path d="M14.68 298.99H17.51" stroke="black" stroke-width="0.5" stroke-linecap="round" stroke-linejoin="round"/>
<path d="M125.8 298.99H128.63" stroke="black" stroke-width="0.5" stroke-linecap="round" stroke-linejoin="round"/>
<path d="M14.68 371.84V67.12" stroke="black" stroke-linecap="round" stroke-linejoin="round"/>
<path d="M17.51 371.84V67.12" stroke="black" stroke-width="0.5" stroke-linecap="round" stroke-linejoin="round"/>
<path d="M18.93 37.35V65.7" stroke="black" stroke-linecap="round" stroke-linejoin="round"/>
<path d="M18.93 410.11V373.26" stroke="black" stroke-linecap="round" stroke-linejoin="round"/>
<path d="M14.68 277.73H17.51" stroke="black" stroke-width="0.5" stroke-linecap="round" stroke-linejoin="round"/>
<path d="M125.8 277.73H128.63" stroke="black" stroke-width="0.5" stroke-linecap="round" stroke-linejoin="round"/>
<path d="M36.22 32.53V18.93" stroke="black" stroke-linecap="round" stroke-linejoin="round"/>
<path d="M50.39 18.93V32.53" stroke="black" stroke-linecap="round" stroke-linejoin="round"/>
<path d="M60.31 439.31V417.2" stroke="black" stroke-linecap="round" stroke-linejoin="round"/>
<path d="M65.28 334.99V306.65" stroke="black" stroke-linecap="round" stroke-linejoin="round"/>
<path d="M78.03 306.65V334.99" stroke="black" stroke-linecap="round" stroke-linejoin="round"/>
<path d="M82.99 439.31V417.2" stroke="black" stroke-linecap="round" stroke-linejoin="round"/>
<path d="M92.91 32.53V18.93" stroke="black" stroke-linecap="round" stroke-linejoin="round"/>
<path d="M107.09 32.53V18.93" stroke="black" stroke-linecap="round" stroke-linejoin="round"/>
<path d="M124.38 37.35V65.7" stroke="black" stroke-linecap="round" stroke-linejoin="round"/>
<path d="M124.38 373.26V410.11" stroke="black" stroke-linecap="round" stroke-linejoin="round"/>
<path d="M125.8 371.84V67.12" stroke="black" stroke-width="0.5" stroke-linecap="round" stroke-linejoin="round"/>
<path d="M128.63 371.84V67.12" stroke="black" stroke-linecap="round" stroke-linejoin="round"/>
<path d="M14.68 96.88H17.51" stroke="black" stroke-width="0.5" stroke-linecap="round" stroke-linejoin="round"/>
<path d="M125.8 96.88H128.63" stroke="black" stroke-width="0.5" stroke-linecap="round" stroke-linejoin="round"/>
<path d="M14.68 75.62H17.51" stroke="black" stroke-width="0.5" stroke-linecap="round" stroke-linejoin="round"/>
<path d="M125.8 75.62H128.63" stroke="black" stroke-width="0.5" stroke-linecap="round" stroke-linejoin="round"/>
<path d="M128.63 67.12H125.8" stroke="black" stroke-linecap="round" stroke-linejoin="round"/>
<path d="M17.51 67.12H14.68" stroke="black" stroke-linecap="round" stroke-linejoin="round"/>
<path d="M92.35 33.1H50.96" stroke="black" stroke-linecap="round" stroke-linejoin="round"/>
<path d="M23.18 33.1H35.65" stroke="black" stroke-linecap="round" stroke-linejoin="round"/>
<path d="M107.65 33.1H120.13" stroke="black" stroke-linecap="round" stroke-linejoin="round"/>
<path d="M36.22 31.68H50.39" stroke="black" stroke-width="0.5" stroke-linecap="round" stroke-linejoin="round"/>
<path d="M92.91 31.68H107.09" stroke="black" stroke-width="0.5" stroke-linecap="round" stroke-linejoin="round"/>
<path d="M40.47 14.68H46.14" stroke="black" stroke-linecap="round" stroke-linejoin="round"/>
<path d="M97.17 14.68H102.83" stroke="black" stroke-linecap="round" stroke-linejoin="round"/>
<path d="M65.28 334.99C65.28 338.51 68.14 341.37 71.66 341.37C75.18 341.37 78.04 338.51 78.04 334.99" stroke="black" stroke-linecap="round" stroke-linejoin="round"/>
<path d="M78.03 306.65C78.03 303.13 75.17 300.27 71.65 300.27C68.13 300.27 65.27 303.13 65.27 306.65" stroke="black" stroke-linecap="round" stroke-linejoin="round"/>
<path d="M124.38 37.35C124.38 35 122.48 33.1 120.13 33.1" stroke="black" stroke-linecap="round" stroke-linejoin="round"/>
<path d="M120.13 414.36C122.48 414.36 124.38 412.46 124.38 410.11" stroke="black" stroke-linecap="round" stroke-linejoin="round"/>
<path d="M18.93 410.11C18.93 412.46 20.83 414.36 23.18 414.36" stroke="black" stroke-linecap="round" stroke-linejoin="round"/>
<path d="M23.18 33.1C20.83 33.1 18.93 35 18.93 37.35" stroke="black" stroke-linecap="round" stroke-linejoin="round"/>
<path d="M50.39 18.93C50.39 16.58 48.49 14.68 46.14 14.68" stroke="black" stroke-linecap="round" stroke-linejoin="round"/>
<path d="M40.47 14.68C38.12 14.68 36.22 16.58 36.22 18.93" stroke="black" stroke-linecap="round" stroke-linejoin="round"/>
<path d="M107.09 18.93C107.09 16.58 105.19 14.68 102.84 14.68" stroke="black" stroke-linecap="round" stroke-linejoin="round"/>
<path d="M97.17 14.68C94.82 14.68 92.92 16.58 92.92 18.93" stroke="black" stroke-linecap="round" stroke-linejoin="round"/>
<path d="M60.31 417.2C60.31 415.63 59.04 414.37 57.48 414.37" stroke="black" stroke-linecap="round" stroke-linejoin="round"/>
<path d="M85.83 414.36C84.26 414.36 83 415.63 83 417.19" stroke="black" stroke-linecap="round" stroke-linejoin="round"/>
<path d="M18.93 373.26C18.93 372.48 18.3 371.84 17.51 371.84" stroke="black" stroke-linecap="round" stroke-linejoin="round"/>
<path d="M17.51 67.12C18.29 67.12 18.93 66.49 18.93 65.7" stroke="black" stroke-linecap="round" stroke-linejoin="round"/>
<path d="M124.38 65.7C124.38 66.48 125.01 67.12 125.8 67.12" stroke="black" stroke-linecap="round" stroke-linejoin="round"/>
<path d="M125.8 371.84C125.02 371.84 124.38 372.47 124.38 373.26" stroke="black" stroke-linecap="round" stroke-linejoin="round"/>
<path d="M50.39 32.53C50.39 32.84 50.64 33.1 50.96 33.1" stroke="black" stroke-linecap="round" stroke-linejoin="round"/>
<path d="M35.65 33.1C35.96 33.1 36.22 32.85 36.22 32.53" stroke="black" stroke-linecap="round" stroke-linejoin="round"/>
<path d="M92.35 33.1C92.66 33.1 92.92 32.85 92.92 32.53" stroke="black" stroke-linecap="round" stroke-linejoin="round"/>
<path d="M107.09 32.53C107.09 32.84 107.34 33.1 107.66 33.1" stroke="black" stroke-linecap="round" stroke-linejoin="round"/>
<path d="M30.55 207.43V119.56" stroke="black" stroke-linecap="round" stroke-linejoin="round"/>
<path d="M107.09 213.1H36.22" stroke="black" stroke-linecap="round" stroke-linejoin="round"/>
<path d="M112.76 119.56V207.43" stroke="black" stroke-linecap="round" stroke-linejoin="round"/>
<path d="M36.22 113.89H107.09" stroke="black" stroke-linecap="round" stroke-linejoin="round"/>
<path d="M107.09 213.1C110.22 213.1 112.76 210.56 112.76 207.43" stroke="black" stroke-linecap="round" stroke-linejoin="round"/>
<path d="M30.55 207.43C30.55 210.56 33.09 213.1 36.22 213.1" stroke="black" stroke-linecap="round" stroke-linejoin="round"/>
<path d="M36.22 113.89C33.09 113.89 30.55 116.43 30.55 119.56" stroke="black" stroke-linecap="round" stroke-linejoin="round"/>
<path d="M112.76 119.56C112.76 116.43 110.22 113.89 107.09 113.89" stroke="black" stroke-linecap="round" stroke-linejoin="round"/>
<path d="M65.98 79.87C65.98 76.74 68.52 74.2 71.65 74.2C74.78 74.2 77.32 76.74 77.32 79.87C77.32 83 74.78 85.54 71.65 85.54C68.52 85.54 65.98 83 65.98 79.87Z" stroke="black" stroke-linecap="round" stroke-linejoin="round"/>
</svg>
